exported-svg/gift.svg

<svg height="24" viewBox="0 0 24 24" width="24" xmlns="http://www.w3.org/2000/svg"><path d="m19.2361065 7h3.2638935c.2761424 0 .5.22385763.5.5v5c0 .2761424-.2238576.5-.5.5h-1.5v9.5c0 .2761424-.2238576.5-.5.5h-16c-.27614237 0-.5-.2238576-.5-.5v-9.5h-1.5c-.27614237 0-.5-.2238576-.5-.5v-5c0-.27614237.22385763-.5.5-.5h3.26389349c-.47503992-.53075649-.76389349-1.23164556-.76389349-2 0-1.65685425 1.34314575-3 3-3 1.74605284 0 3.0622721 1.05297538 4.000608 2.75904063.1891122.34384051.3550111.7008878.499392 1.06320436.1443809-.36231656.3102798-.71936385.499392-1.06320436.9383359-1.70606525 2.2545552-2.75904063 4.000608-2.75904063 1.6568542 0 3 1.34314575 3 3 0 .76835444-.2888536 1.46924351-.7638935 2zm-2.2361065 0c1.1045695 0 2-.8954305 2-2s-.8954305-2-2-2c-1.3164472 0-2.3439779.82202462-3.124392 2.24095937-.2835748.51559048-.5116886 1.07196562-.6879994 1.62873648-.0142067.04486332-.0276614.08833048-.0403769.13030415zm-4 1v4h9v-4h-5zm-1 0h-4-5v4h9zm-4-1h3.8527683c-.0127155-.04197367-.0261702-.08544083-.0403769-.13030415-.1763108-.55677086-.4044246-1.113146-.6879994-1.62873648-.7804141-1.41893475-1.80794484-2.24095937-3.124392-2.24095937-1.1045695 0-2 .8954305-2 2s.8954305 2 2 2zm5 15h7v-9h-7zm-1 0v-9h-7v9z"/></svg>

<?xml version="1.0" encoding="UTF-8"?>
<svg width="24px" height="24px" viewBox="0 0 24 24" version="1.1" xmlns="http://www.w3.org/2000/svg" xmlns:xlink="http://www.w3.org/1999/xlink">
    <!-- Generator: Sketch 55.2 (78181) - https://sketchapp.com -->
    <title>gift</title>
    <desc>Created with Sketch.</desc>
    <g id="gift" stroke="none" stroke-width="1" fill="none" fill-rule="evenodd">
        <path d="M19.2361065,7 L22.5,7 C22.7761424,7 23,7.22385763 23,7.5 L23,12.5 C23,12.7761424 22.7761424,13 22.5,13 L21,13 L21,22.5 C21,22.7761424 20.7761424,23 20.5,23 L4.5,23 C4.22385763,23 4,22.7761424 4,22.5 L4,13 L2.5,13 C2.22385763,13 2,12.7761424 2,12.5 L2,7.5 C2,7.22385763 2.22385763,7 2.5,7 L5.76389349,7 C5.28885357,6.46924351 5,5.76835444 5,5 C5,3.34314575 6.34314575,2 8,2 C9.74605284,2 11.0622721,3.05297538 12.000608,4.75904063 C12.1897202,5.10288114 12.3556191,5.45992843 12.5,5.82224499 C12.6443809,5.45992843 12.8102798,5.10288114 12.999392,4.75904063 C13.9377279,3.05297538 15.2539472,2 17,2 C18.6568542,2 20,3.34314575 20,5 C20,5.76835444 19.7111464,6.46924351 19.2361065,7 Z M17,7 C18.1045695,7 19,6.1045695 19,5 C19,3.8954305 18.1045695,3 17,3 C15.6835528,3 14.6560221,3.82202462 13.875608,5.24095937 C13.5920332,5.75654985 13.3639194,6.31292499 13.1876086,6.86969585 C13.1734019,6.91455917 13.1599472,6.95802633 13.1472317,7 L17,7 Z M13,8 L13,12 L22,12 L22,8 L17,8 L13,8 Z M12,8 L8,8 L3,8 L3,12 L12,12 L12,8 Z M8,7 L11.8527683,7 C11.8400528,6.95802633 11.8265981,6.91455917 11.8123914,6.86969585 C11.6360806,6.31292499 11.4079668,5.75654985 11.124392,5.24095937 C10.3439779,3.82202462 9.31644716,3 8,3 C6.8954305,3 6,3.8954305 6,5 C6,6.1045695 6.8954305,7 8,7 Z M13,22 L20,22 L20,13 L13,13 L13,22 Z M12,22 L12,13 L5,13 L5,22 L12,22 Z" id="Combined-Shape" fill="#000000" fill-rule="nonzero"></path>
    </g>
</svg>
